X:457
T: "Kriegers Abschied"
N: Z1137
O: Europa, Mitteleuropa, Deutschland, Niederrhein
R: Vaterland und Wehr
M: 6/8
L: 1/8
K: E
E | =G2GGFG | F2FD2
E | =G2FF2F | =GFEF2
F | =G2GBAG | FFFE2
E | E2EEF=G | EDDD2
D | D2DEEF | B3A2=G | F6 | E2z3

@@@ Tune index: 10215
